lib/flags/s/SOM.svg

<svg xmlns="http://www.w3.org/2000/svg" fill="none" viewBox="0 0 16 12"><mask id="SOM_svg__a" width="16" height="12" x="0" y="0" mask-type="alpha" maskUnits="userSpaceOnUse"><path fill="#fff" d="M0 0H16V12H0z"/></mask><g fill-rule="evenodd" clip-rule="evenodd" mask="url(#SOM_svg__a)"><path fill="#56C6F5" d="M0 0H16V12H0V0Z"/><path fill="#F7FCFF" d="M7.98936 7.35869L6.10739 8.55525L6.73864 6.46058L5.3963 5.09203L7.24695 5.05161L8.06572 2.98368L8.81183 5.07892L10.6581 5.11115L9.27066 6.50478L9.91853 8.49749L7.98936 7.35869Z"/></g></svg>

<svg xmlns="http://www.w3.org/2000/svg" fill="none" viewBox="0 0 16 12"><mask id="SOM_svg__a" width="16" height="12" x="0" y="0" maskUnits="userSpaceOnUse"><path fill="#fff" d="M0 0h16v12H0z"/></mask><g fill-rule="evenodd" clip-rule="evenodd" mask="url(#SOM_svg__a)"><path fill="#56C6F5" d="M0 0h16v12H0V0z"/><path fill="#F7FCFF" d="M7.99 7.359L6.106 8.555l.632-2.094-1.343-1.369 1.85-.04.82-2.068.746 2.095 1.846.032L9.27 6.505l.647 1.992L7.99 7.36z"/></g></svg>
